X:1
T:Title
%%score { 1 | ( 2 3 ) }
L:1/8
M:3/4
K:Ab
V:1 treble nm="Grand Piano"
V:2 bass 
V:3 bass 
V:1
 z2 z2[Q:1/4=100] [CE]2 | [CA]>[CA] [EA]2 B2 | c2 e2 d2 | c>B A2 c2 |[M:2/4] B4 |[M:1/4] E2 | %6
[M:3/4] [CA]>[CA] [EA]2 B2 | c2 e2 [Fd]2 | c>B A2 B2 |[M:2/4] [CA]4 |[M:1/4] [Ec]2 | %11
[M:3/4] d>c B2 d2 | [Ec]>[DB] [CA]2 [Ec]2 | [CFB]>[CFA] [C=EG]2 .[CEB]2 |[M:2/4] [C=EG]4 | %15
[M:1/4] [A,DF]2 |[M:3/4] [DFA]>[A,DF] [A,CE]2 [CA]2 | c>d e2 [Fd]2 | c>B A2 B2 |[M:2/4] [CA]4 |] %20
V:2
 z2 z2 [A,,A,]2 | [A,,E,]>[A,,E,] [C,A,]2 [E,G,E]2 | [A,E]2 [A,CE]2 [A,F]2 | %3
 [A,E]>[A,D][K:bass] [A,C]2 [A,E]2 |[M:2/4] [E,G,E]4 |[M:1/4] [E,G,D]2 | %6
[M:3/4] [A,,A,]>[A,,E,] [C,A,]2 [E,G,E]2 | [A,E]2 [A,CE]2 [D,A,]2 | [E,A,E]>[E,D] [E,C]2 [E,D]2 | %9
[M:2/4] [A,,E,]4 |[M:1/4] [A,,A,]2 |[M:3/4] [E,B,E]>[E,B,E] [E,G,E]2 [E,B,E]2 | %12
 [A,,A,]>[A,,E,] [A,,E,]2 [A,,A,]2 | F,>F, C,2 z A |[M:2/4] C,4 |[M:1/4] D,2 | %16
[M:3/4] D,>D, A,,2 [A,,E,]2 | [A,E]>[A,B,E] [A,CE]2 [D,A,]2 | [E,A,E]>[E,D] [E,C]2 [E,D]2 | %19
[M:2/4] [A,,E,]4 |] %20
V:3
 x6 | x6 | x6 | x2[K:bass] x4 |[M:2/4] x4 |[M:1/4] x2 |[M:3/4] x6 | x6 | x6 |[M:2/4] x4 | %10
[M:1/4] x2 |[M:3/4] x6 | x6 | z2 z2 C,2 |[M:2/4] x4 |[M:1/4] x2 |[M:3/4] x6 | x6 | x6 | %19
[M:2/4] x4 |] %20

